default/images/icon/awards.svg

<svg xmlns="http://www.w3.org/2000/svg" viewBox="0 0 20 20"><rect x="0" fill="none" width="20" height="20"/><g><path d="M4.46 5.16L5 7.46l-.54 2.29 2.01 1.24L7.7 13l2.3-.54 2.3.54 1.23-2.01 2.01-1.24L15 7.46l.54-2.3-2-1.24-1.24-2.01-2.3.55-2.29-.54-1.25 2zm5.55 6.34C7.79 11.5 6 9.71 6 7.49c0-2.2 1.79-3.99 4.01-3.99 2.2 0 3.99 1.79 3.99 3.99 0 2.22-1.79 4.01-3.99 4.01zm-.02-1C8.33 10.5 7 9.16 7 7.5c0-1.65 1.33-3 2.99-3S13 5.85 13 7.5c0 1.66-1.35 3-3.01 3zm3.84 1.1l-1.28 2.24-2.08-.47L13 19.2l1.4-2.2h2.5zm-7.7.07l1.25 2.25 2.13-.51L7 19.2 5.6 17H3.1z"/></g></svg>

<?xml version="1.0" encoding="utf-8"?>
<!-- Generator: Adobe Illustrator 24.3.0, SVG Export Plug-In . SVG Version: 6.00 Build 0)  -->
<svg version="1.1" id="レイヤー_1" xmlns="http://www.w3.org/2000/svg" xmlns:xlink="http://www.w3.org/1999/xlink" x="0px"
	 y="0px" viewBox="0 0 20 20" style="enable-background:new 0 0 20 20;" xml:space="preserve">
<style type="text/css">
	.st0{fill:none;}
	.st1{fill:#FFFFFF;}
</style>
<rect class="st0" width="20" height="20"/>
<g>
	<path class="st1" d="M4.5,5.2L5,7.5L4.5,9.8l2,1.2l1.2,2l2.3-0.5l2.3,0.5l1.2-2l2-1.2L15,7.5l0.5-2.3l-2-1.2l-1.2-2L10,2.5L7.7,1.9
		l-1.2,2L4.5,5.2z M10,11.5c-2.2,0-4-1.8-4-4c0-2.2,1.8-4,4-4c2.2,0,4,1.8,4,4C14,9.7,12.2,11.5,10,11.5z M10,10.5c-1.7,0-3-1.3-3-3
		c0-1.7,1.3-3,3-3s3,1.3,3,3C13,9.2,11.6,10.5,10,10.5z M13.8,11.6l-1.3,2.2l-2.1-0.5l2.5,5.8l1.4-2.2h2.5L13.8,11.6z M6.1,11.7
		l1.2,2.2l2.1-0.5L7,19.2L5.6,17H3.1L6.1,11.7z"/>
</g>
</svg>
